images/icons/dribbble-icon.svg

<svg width="32" height="32" viewBox="0 0 32 32" fill="none" xmlns="http://www.w3.org/2000/svg">
<path d="M15.9997 0C7.17757 0 0 7.17757 0 16C0 24.8224 7.17757 32 15.9997 32C24.8222 32 32 24.8224 32 16C32 7.17757 24.8219 0 15.9997 0ZM15.9997 30.4219C8.0476 30.4219 1.57806 23.9521 1.57806 16C1.57806 8.04787 8.0476 1.57806 15.9997 1.57806C23.9519 1.57806 30.4219 8.04787 30.4219 16C30.4219 23.9521 23.9519 30.4219 15.9997 30.4219Z" fill="#484E53"/>
<path d="M15.9326 7.05762C11.0017 7.05762 6.99023 11.0691 6.99023 15.9997C6.99023 20.9306 11.0017 24.9421 15.9326 24.9421C20.8635 24.9421 24.875 20.9306 24.875 15.9997C24.875 11.0691 20.8635 7.05762 15.9326 7.05762ZM21.7701 11.518C22.723 12.7537 23.2563 14.2614 23.2922 15.8214C21.4258 15.5316 19.7697 15.5734 18.3176 15.8314C18.0825 15.2808 17.8322 14.7369 17.5669 14.2002C19.0651 13.5645 20.5274 12.6989 21.7701 11.518ZM20.6784 10.3752C19.5585 11.4373 18.2142 12.2166 16.8271 12.7884C15.7643 10.8692 14.7527 9.47022 14.2625 8.82873C14.8099 8.70069 15.3702 8.63591 15.9323 8.63568C17.7397 8.63568 19.3957 9.29111 20.6784 10.3752ZM12.9745 9.2577L12.7428 9.44865C12.7673 9.47837 13.9766 10.9694 15.3085 13.3331C12.5624 14.1821 9.91123 14.332 8.75609 14.3522C9.28106 12.0667 10.871 10.1846 12.9745 9.2577ZM8.5683 15.9997C8.5683 15.9779 8.56961 15.9563 8.56988 15.9345C9.73843 15.9327 12.8438 15.8151 16.0683 14.7604C16.3083 15.2391 16.5361 15.7238 16.7514 16.2141C13.2233 17.3069 11.1482 19.6235 10.3123 20.7507C9.22556 19.4675 8.5683 17.8092 8.5683 15.9997ZM11.4583 21.8436C12.0435 20.9804 13.8906 18.6588 17.3421 17.6601C17.9404 19.2537 18.427 20.9953 18.6587 22.8083L18.7729 22.7936C17.8736 23.171 16.9079 23.365 15.9326 23.364C14.3142 23.3653 12.7408 22.8307 11.4583 21.8436ZM20.141 22.0374C19.8833 20.376 19.4414 18.7892 18.9078 17.3237C20.1539 17.1436 21.5687 17.1396 23.1617 17.3989C22.7924 19.3108 21.6818 20.9604 20.141 22.0374Z" fill="#484E53"/>
</svg>

<svg xmlns="http://www.w3.org/2000/svg" width="32" height="32" fill="none"><path fill="#484E53" d="M16 0C7.178 0 0 7.178 0 16s7.178 16 16 16 16-7.178 16-16S24.822 0 16 0m0 30.422c-7.952 0-14.422-6.47-14.422-14.422S8.048 1.578 16 1.578 30.422 8.048 30.422 16 23.952 30.422 16 30.422"/><path fill="#484E53" d="M15.933 7.058c-4.931 0-8.943 4.011-8.943 8.942 0 4.93 4.012 8.942 8.943 8.942 4.93 0 8.942-4.011 8.942-8.942 0-4.93-4.012-8.942-8.942-8.942m5.837 4.46a7.32 7.32 0 0 1 1.522 4.303c-1.866-.29-3.522-.248-4.974.01a32 32 0 0 0-.751-1.63c1.498-.636 2.96-1.502 4.203-2.683m-1.092-1.143c-1.12 1.062-2.464 1.842-3.85 2.413a33 33 0 0 0-2.565-3.96 7.35 7.35 0 0 1 6.415 1.547m-7.703-1.117-.232.19c.024.03 1.234 1.521 2.566 3.885-2.747.85-5.398.999-6.553 1.02a7.4 7.4 0 0 1 4.219-5.095M8.568 16l.002-.066c1.168-.001 4.274-.119 7.498-1.174q.36.72.683 1.454a12.86 12.86 0 0 0-6.439 4.537A7.33 7.33 0 0 1 8.568 16m2.89 5.844c.585-.864 2.433-3.185 5.884-4.184.598 1.594 1.085 3.335 1.317 5.148l.114-.014a7.3 7.3 0 0 1-2.84.57 7.33 7.33 0 0 1-4.475-1.52m8.683.193a25 25 0 0 0-1.233-4.713c1.246-.18 2.66-.184 4.254.075a7.38 7.38 0 0 1-3.021 4.638"/></svg>
